assets/images/logo.svg

<svg width="134" height="57" viewBox="0 0 134 57" fill="none" xmlns="http://www.w3.org/2000/svg">
<path d="M2.09229 27.4597L17.908 8.05936H2.81332V1.14441e-05H30.0704V6.80462L14.2065 26.205H31.1281V34.2643H2.09229V27.4597Z" fill="white"/>
<path d="M34.7322 27.4597L50.5479 8.05936H35.4532V1.14441e-05H62.7103V6.80462L46.8464 26.205H63.768V34.2643H34.7322V27.4597Z" fill="white"/>
<path d="M80.352 20.7033H88.2359L84.2941 9.45877L80.352 20.7033ZM65.9302 34.2642L79.3425 8.7738e-05H89.5819L103.042 34.2642H92.9951L90.8799 28.2801H77.708L75.6408 34.2642H65.9302Z" fill="white"/>
<path d="M104.964 27.4597L120.78 8.05936H105.685V1.14441e-05H132.942V6.80462L117.078 26.205H134V34.2643H104.964V27.4597Z" fill="white"/>
<path d="M0.0354978 53.6682C1.06765 54.5271 2.25083 54.9565 3.58438 54.9565C4.38658 54.9565 4.98575 54.816 5.38097 54.5343C5.7762 54.2531 5.97403 53.8845 5.97403 53.4283C5.97403 53.0315 5.80875 52.6674 5.4782 52.3356C5.14786 52.004 4.34837 51.5654 3.07994 51.0207C2.00009 50.535 1.2171 49.9886 0.730079 49.3812C0.243511 48.7743 0 48.062 0 47.2447C0 46.066 0.454462 45.1435 1.36294 44.4771C2.27163 43.8109 3.46341 43.4775 4.93849 43.4775C6.26005 43.4775 7.30147 43.6434 8.06253 43.975V46.4008C7.21895 45.8201 6.20104 45.5301 5.00926 45.5301C4.30722 45.5301 3.73925 45.6633 3.30559 45.9298C2.87193 46.1965 2.6551 46.5637 2.6551 47.0315C2.6551 47.4047 2.80546 47.7451 3.1064 48.0532C3.40734 48.3612 4.11232 48.7609 5.22157 49.2525C6.4961 49.8093 7.38106 50.3942 7.8769 51.0071C8.37228 51.6204 8.62032 52.3533 8.62032 53.2063C8.62032 54.4383 8.18213 55.3785 7.30577 56.0272C6.42963 56.6756 5.201 57 3.61987 57C2.15044 57 0.955728 56.7544 0.0354978 56.2625V53.6682Z" fill="white"/>
<path d="M16.7506 50.2564C16.7506 51.5835 17.0764 52.6719 17.7284 53.5217C18.3803 54.3718 19.2668 54.7967 20.3881 54.7967C21.5505 54.7967 22.4546 54.3924 23.1006 53.5837C23.7466 52.7754 24.0697 51.6782 24.0697 50.292C24.0697 48.8646 23.7567 47.7392 23.1316 46.9159C22.5062 46.0929 21.621 45.681 20.4765 45.681C19.32 45.681 18.4099 46.112 17.7461 46.9738C17.0825 47.8354 16.7506 48.9297 16.7506 50.2564ZM14.0955 50.3987C14.0955 48.3434 14.684 46.676 15.8609 45.3965C17.0379 44.1173 18.603 43.4774 20.5561 43.4774C22.4087 43.4774 23.9001 44.0982 25.0299 45.3389C26.1597 46.5798 26.7248 48.1716 26.7248 50.1143C26.7248 52.1637 26.1421 53.8238 24.977 55.094C23.8115 56.3646 22.2701 57 20.3526 57C18.4881 57 16.9791 56.381 15.8256 55.143C14.6722 53.9051 14.0955 52.3237 14.0955 50.3987Z" fill="white"/>
<path d="M40.4662 56.769H33.0144V43.6906H35.5366V54.6724H40.4662V56.769Z" fill="white"/>
<path d="M56.261 51.216C56.261 55.0719 54.485 56.9998 50.9332 56.9998C47.5168 56.9998 45.8086 55.1255 45.8086 51.376V43.6907H48.34V51.376C48.34 53.6564 49.2485 54.7966 51.0657 54.7966C52.8476 54.7966 53.7386 53.6948 53.7386 51.4915V43.6907H56.261V51.216Z" fill="white"/>
<path d="M71.9498 45.7965H68.2239V56.7689H65.6925V45.7965H61.9756V43.6908H71.9498V45.7965Z" fill="white"/>
<path d="M80.319 56.7689H77.7966V43.6905H80.319V56.7689Z" fill="white"/>
<path d="M89.2816 50.2564C89.2816 51.5835 89.6074 52.6719 90.2595 53.5217C90.9113 54.3718 91.7978 54.7967 92.9188 54.7967C94.0812 54.7967 94.9856 54.3924 95.6316 53.5837C96.2776 52.7754 96.6007 51.6782 96.6007 50.292C96.6007 48.8646 96.2878 47.7392 95.6626 46.9159C95.037 46.0929 94.152 45.681 93.0075 45.681C91.851 45.681 90.9409 46.112 90.2771 46.9738C89.6135 47.8354 89.2816 48.9297 89.2816 50.2564ZM86.6265 50.3987C86.6265 48.3434 87.2148 46.676 88.3919 45.3965C89.5689 44.1173 91.134 43.4774 93.0871 43.4774C94.9395 43.4774 96.4309 44.0982 97.5609 45.3389C98.6908 46.5798 99.2558 48.1716 99.2558 50.1143C99.2558 52.1637 98.6729 53.8238 97.5078 55.094C96.3425 56.3646 94.8009 57 92.8836 57C91.0192 57 89.5102 56.381 88.3566 55.143C87.203 53.9051 86.6265 52.3237 86.6265 50.3987Z" fill="white"/>
<path d="M116.9 56.769H114.263L108.501 47.9111C108.265 47.5497 108.07 47.2122 107.917 46.8981H107.881C107.929 47.3128 107.952 47.9878 107.952 48.9239V56.769H105.545V43.6906H108.36L113.918 52.3179C114.201 52.756 114.407 53.0939 114.537 53.3307H114.572C114.525 53.0996 114.502 52.4895 114.502 51.5003V43.6906H116.9V56.769Z" fill="white"/>
<path d="M123.429 53.6682C124.461 54.527 125.644 54.9565 126.977 54.9565C127.78 54.9565 128.379 54.816 128.774 54.5343C129.17 54.2531 129.367 53.8845 129.367 53.4282C129.367 53.0315 129.202 52.6674 128.872 52.3356C128.541 52.0039 127.741 51.5654 126.473 51.0207C125.393 50.5349 124.61 49.9886 124.123 49.3812C123.637 48.7743 123.393 48.062 123.393 47.2446C123.393 46.0659 123.848 45.1435 124.756 44.4771C125.665 43.8109 126.856 43.4775 128.332 43.4775C129.653 43.4775 130.695 43.6434 131.456 43.975V46.4007C130.612 45.8201 129.594 45.53 128.402 45.53C127.7 45.53 127.132 45.6633 126.699 45.9298C126.265 46.1965 126.048 46.5637 126.048 47.0315C126.048 47.4047 126.199 47.7451 126.499 48.0531C126.8 48.3612 127.505 48.7609 128.615 49.2525C129.889 49.8093 130.774 50.3942 131.27 51.0071C131.766 51.6203 132.013 52.3533 132.013 53.2063C132.013 54.4383 131.575 55.3784 130.699 56.0272C129.823 56.6756 128.594 57 127.013 57C125.544 57 124.349 56.7544 123.429 56.2625V53.6682Z" fill="white"/>
</svg>

<svg xmlns="http://www.w3.org/2000/svg" width="134" height="57" fill="none"><path fill="#fff" d="m2.092 27.46 15.816-19.4H2.813V0H30.07v6.805l-15.864 19.4h16.922v8.06H2.092V27.46ZM34.732 27.46l15.816-19.4H35.453V0H62.71v6.805l-15.864 19.4h16.922v8.06H34.732V27.46ZM80.352 20.703h7.884L84.294 9.46l-3.942 11.244ZM65.93 34.264 79.342 0h10.24l13.46 34.264H92.995L90.88 28.28H77.708l-2.067 5.984h-9.71ZM104.964 27.46l15.816-19.4h-15.095V0h27.257v6.805l-15.864 19.4H134v8.06h-29.036V27.46ZM.035 53.668a5.39 5.39 0 0 0 3.55 1.288c.802 0 1.4-.14 1.796-.422.395-.28.593-.65.593-1.106 0-.396-.165-.76-.496-1.092-.33-.332-1.13-.77-2.398-1.315C2 50.535 1.217 49.989.73 49.38.244 48.774 0 48.062 0 47.245c0-1.179.454-2.101 1.363-2.768.909-.666 2.1-1 3.575-1 1.322 0 2.363.166 3.125.498v2.426c-.844-.58-1.862-.87-3.054-.87-.702 0-1.27.132-1.703.399-.434.267-.65.634-.65 1.102 0 .373.15.713.45 1.021.301.308 1.006.708 2.116 1.2 1.274.556 2.16 1.141 2.655 1.754.495.613.743 1.346.743 2.2 0 1.231-.438 2.172-1.314 2.82C6.43 56.676 5.2 57 3.62 57c-1.47 0-2.664-.246-3.585-.737v-2.595ZM16.75 50.256c0 1.328.326 2.416.978 3.266.652.85 1.539 1.275 2.66 1.275 1.162 0 2.067-.405 2.713-1.213.646-.809.969-1.906.969-3.292 0-1.427-.313-2.553-.938-3.376-.626-.823-1.511-1.235-2.655-1.235-1.157 0-2.067.431-2.73 1.293-.665.861-.996 1.956-.996 3.282Zm-2.655.143c0-2.056.589-3.723 1.766-5.002 1.177-1.28 2.742-1.92 4.695-1.92 1.853 0 3.344.621 4.474 1.862 1.13 1.24 1.695 2.833 1.695 4.775 0 2.05-.583 3.71-1.748 4.98C23.811 56.364 22.27 57 20.353 57c-1.865 0-3.374-.619-4.527-1.857-1.154-1.238-1.73-2.82-1.73-4.744ZM40.466 56.769h-7.452V43.691h2.523v10.981h4.93v2.097ZM56.261 51.216c0 3.856-1.776 5.784-5.328 5.784-3.416 0-5.124-1.874-5.124-5.624v-7.685h2.531v7.685c0 2.28.908 3.42 2.726 3.42 1.782 0 2.673-1.101 2.673-3.304V43.69h2.522v7.525ZM71.95 45.797h-3.726v10.972h-2.532V45.797h-3.716V43.69h9.974v2.105ZM80.319 56.769h-2.522V43.69h2.522v13.078ZM89.282 50.256c0 1.328.325 2.416.978 3.266.651.85 1.538 1.275 2.659 1.275 1.162 0 2.067-.405 2.713-1.213.646-.809.969-1.906.969-3.292 0-1.427-.313-2.553-.938-3.376-.626-.823-1.511-1.235-2.656-1.235-1.156 0-2.066.431-2.73 1.293-.663.861-.995 1.956-.995 3.282Zm-2.656.143c0-2.056.589-3.723 1.766-5.002 1.177-1.28 2.742-1.92 4.695-1.92 1.852 0 3.344.621 4.474 1.862 1.13 1.24 1.695 2.833 1.695 4.775 0 2.05-.583 3.71-1.748 4.98C96.343 56.364 94.8 57 92.884 57c-1.865 0-3.374-.619-4.527-1.857-1.154-1.238-1.73-2.82-1.73-4.744ZM116.9 56.769h-2.637l-5.762-8.858a9.422 9.422 0 0 1-.584-1.013h-.036c.048.415.071 1.09.071 2.026v7.845h-2.407V43.691h2.815l5.558 8.627c.283.438.489.776.619 1.013h.035c-.047-.231-.07-.842-.07-1.83v-7.81h2.398v13.078ZM123.429 53.668c1.032.859 2.215 1.288 3.548 1.288.803 0 1.402-.14 1.797-.422.396-.28.593-.65.593-1.106 0-.396-.165-.76-.495-1.092-.331-.332-1.131-.77-2.399-1.315-1.08-.486-1.863-1.032-2.35-1.64-.486-.607-.73-1.319-.73-2.136 0-1.18.455-2.101 1.363-2.768.909-.666 2.1-1 3.576-1 1.321 0 2.363.166 3.124.498v2.426c-.844-.58-1.862-.871-3.054-.871-.702 0-1.27.133-1.703.4-.434.267-.651.634-.651 1.102 0 .373.151.713.451 1.021.301.308 1.006.708 2.116 1.2 1.274.556 2.159 1.141 2.655 1.754s.743 1.346.743 2.2c0 1.231-.438 2.171-1.314 2.82-.876.649-2.105.973-3.686.973-1.469 0-2.664-.246-3.584-.737v-2.595Z"/></svg>
